public/x.svg

<svg width="24" height="24" viewBox="0 0 24 24" fill="none" xmlns="http://www.w3.org/2000/svg" class="icon-xl-heavy"><path fill-rule="evenodd" clip-rule="evenodd" d="M5.63603 5.63604C6.02656 5.24552 6.65972 5.24552 7.05025 5.63604L12 10.5858L16.9497 5.63604C17.3403 5.24552 17.9734 5.24552 18.364 5.63604C18.7545 6.02657 18.7545 6.65973 18.364 7.05025L13.4142 12L18.364 16.9497C18.7545 17.3403 18.7545 17.9734 18.364 18.364C17.9734 18.7545 17.3403 18.7545 16.9497 18.364L12 13.4142L7.05025 18.364C6.65972 18.7545 6.02656 18.7545 5.63603 18.364C5.24551 17.9734 5.24551 17.3403 5.63603 16.9497L10.5858 12L5.63603 7.05025C5.24551 6.65973 5.24551 6.02657 5.63603 5.63604Z" fill="currentColor"></path></svg>

<svg width="24" height="24" viewBox="0 0 24 24" fill="none" xmlns="http://www.w3.org/2000/svg" class="icon-xl-heavy"><path fill-rule="evenodd" clip-rule="evenodd" d="M5.636 5.636a1 1 0 0 1 1.414 0l4.95 4.95 4.95-4.95a1 1 0 0 1 1.414 1.414L13.414 12l4.95 4.95a1 1 0 0 1-1.414 1.414L12 13.414l-4.95 4.95a1 1 0 0 1-1.414-1.414l4.95-4.95-4.95-4.95a1 1 0 0 1 0-1.414" fill="currentColor"/></svg>
